<?xml version="1.0" encoding="UTF-8"?>
<map version="1.10" tiledversion="1.11.2" orientation="orthogonal" renderorder="right-down" width="30" height="30" tilewidth="64" tileheight="64" infinite="0" nextlayerid="3" nextobjectid="1">
 <tileset firstgid="1" name="terrain" tilewidth="64" tileheight="64" tilecount="40" columns="10">
  <image source="../../WebDeve/SFML/SFML_Projects/SFML_GAME/bbGAME/Bullet-Vortex/Bullet_Vortex/Assets/Tiny Swords (Update 010)/Terrain/Ground/Tilemap_Flat.png" width="640" height="256"/>
 </tileset>
 <tileset firstgid="41" name="props" tilewidth="64" tileheight="64" tilecount="72" columns="24">
  <image source="../../WebDeve/SFML/SFML_Projects/SFML_GAME/bbGAME/Bullet-Vortex/Bullet_Vortex/Assets/Tiny Swords (Update 010)/Terrain/Water/Foam/Foam.png" width="1536" height="192"/>
 </tileset>
 <tileset firstgid="113" name="bridge" tilewidth="64" tileheight="64" tilecount="12" columns="3">
  <image source="../../WebDeve/SFML/SFML_Projects/SFML_GAME/bbGAME/Bullet-Vortex/Bullet_Vortex/Assets/Tiny Swords (Update 010)/Terrain/Bridge/Bridge_All.png" width="192" height="256"/>
 </tileset>
 <layer id="1" name="Tile Layer 1" width="30" height="30">
  <data encoding="csv">
1,2,3,6,1,2,3,6,1,2,3,4,1,2,3,4,1,2,3,4,1,2,3,4,1,2,3,4,1,2,
11,12,13,14,11,12,13,6,11,12,13,14,11,12,13,14,11,12,13,14,11,12,13,14,11,12,13,14,11,12,
21,22,23,24,21,22,23,6,21,22,23,24,21,22,23,24,21,22,23,24,21,22,23,24,21,22,23,24,21,22,
6,6,6,6,6,6,6,6,6,6,6,17,6,6,6,6,6,6,6,34,31,32,33,34,31,32,33,34,31,32,
1,2,3,4,1,2,3,6,1,2,3,4,1,2,3,4,1,2,3,4,1,2,3,4,1,2,3,4,1,2,
11,12,13,14,11,12,12,6,11,12,13,14,11,12,13,14,11,12,13,14,11,12,13,14,11,12,13,14,11,12,
21,22,23,24,12,12,12,6,21,22,23,24,21,22,23,24,21,22,23,24,21,22,23,24,21,22,23,24,21,22,
31,32,33,34,12,12,12,6,31,32,33,34,31,32,33,34,31,32,33,34,31,32,33,34,31,32,33,34,31,32,
1,2,3,4,1,2,2,6,1,2,3,4,1,2,3,4,1,2,3,4,1,2,3,4,1,2,3,4,1,2,
11,12,13,14,11,12,13,6,11,12,13,14,11,12,13,14,11,12,13,14,11,12,13,14,11,12,13,14,11,12,
21,22,23,24,21,22,23,6,21,22,23,24,21,22,23,24,21,22,23,24,21,22,23,24,21,22,23,24,21,22,
31,32,33,34,31,32,0,69,69,69,69,69,0,32,33,34,31,32,33,34,31,32,33,34,31,32,33,34,31,32,
1,2,3,4,1,2,3,6,1,2,3,4,1,2,3,4,1,2,3,4,1,2,3,4,1,2,3,4,1,2,
11,12,13,14,11,12,13,6,11,12,13,14,11,12,13,14,11,12,13,14,11,12,13,14,11,12,13,14,11,12,
21,22,23,24,21,22,23,24,21,22,23,24,21,22,23,24,21,22,23,24,21,22,23,24,21,22,23,24,21,22,
31,32,33,34,31,32,33,34,31,32,33,34,31,32,33,34,31,32,33,34,31,32,33,34,31,32,33,34,31,32,
1,2,3,4,1,2,3,4,1,2,3,4,1,2,3,4,1,2,3,4,1,2,3,4,1,2,3,4,1,2,
11,12,13,14,11,12,13,14,11,12,13,14,11,12,13,14,11,12,13,14,11,12,13,14,11,12,13,14,11,12,
21,22,23,24,21,22,23,24,21,22,23,24,21,22,23,24,21,22,23,24,21,22,23,24,21,22,23,24,21,22,
31,32,33,34,31,32,33,34,31,32,33,34,31,32,33,34,31,32,33,34,31,32,33,34,31,32,33,34,31,32,
1,2,3,4,1,2,3,4,1,2,3,4,1,2,3,4,1,2,3,4,1,2,3,4,1,2,3,4,1,2,
11,12,13,14,11,12,13,14,11,12,13,14,11,12,13,14,11,12,13,14,11,12,13,14,11,12,13,14,11,12,
21,22,23,24,21,22,23,24,21,22,23,24,21,22,23,24,21,22,23,24,21,22,23,24,21,22,23,24,21,22,
31,32,33,34,31,32,33,34,31,32,33,34,31,32,33,34,31,32,33,34,31,32,33,34,31,32,33,34,31,32,
1,2,3,4,1,2,3,4,1,2,3,4,1,2,3,4,1,2,3,4,1,2,3,4,1,2,3,4,1,2,
11,12,13,14,11,12,13,14,11,12,13,14,11,12,13,14,11,12,13,14,11,12,13,14,11,12,13,14,11,12,
21,22,23,24,21,22,23,24,21,22,23,24,21,22,23,24,21,22,23,24,21,22,23,24,21,22,23,24,21,22,
31,32,33,34,31,32,33,34,31,32,33,34,31,32,33,34,31,32,33,34,31,32,33,34,31,32,33,34,31,32,
1,2,3,4,1,2,3,4,1,2,3,4,1,2,3,4,1,2,3,4,1,2,3,4,1,2,3,4,1,2,
11,12,13,14,11,12,13,14,11,12,13,14,11,12,13,14,11,12,13,14,11,12,13,14,11,12,13,14,11,12
</data>
 </layer>
 <layer id="2" name="Tile Layer 2" width="30" height="30">
  <data encoding="csv">
0,0,0,17,0,0,0,17,0,0,0,66,0,0,0,0,0,0,0,17,0,0,0,66,0,0,0,0,0,0,
0,0,0,17,0,0,0,17,0,0,0,66,0,0,0,0,0,0,0,17,0,0,0,66,0,0,0,0,0,0,
0,0,0,17,0,0,0,17,0,0,0,66,0,0,0,0,0,0,0,17,0,0,0,66,0,0,0,0,0,0,
17,17,17,17,17,17,17,17,17,17,17,0,17,17,17,17,17,17,17,17,17,17,17,17,17,17,17,17,17,17,
0,0,0,17,0,0,0,17,12,12,12,66,0,0,12,12,12,0,0,17,0,0,0,66,0,0,0,17,0,0,
0,0,0,17,0,0,0,17,12,0,12,66,0,0,12,12,12,0,0,17,0,0,0,66,0,0,0,17,0,0,
0,0,0,17,0,0,12,17,12,12,12,66,12,12,12,12,12,12,12,17,12,12,12,66,12,12,12,17,0,0,
2,2,2,17,12,12,12,17,12,12,12,66,12,12,12,12,12,12,12,17,12,12,12,66,12,12,12,17,0,0,
0,0,0,17,12,12,12,17,12,12,12,66,12,12,12,12,12,12,12,17,12,12,12,66,12,12,12,17,0,0,
0,0,0,17,0,0,0,17,12,12,12,66,0,12,12,12,12,0,0,17,0,0,0,66,12,12,12,17,0,0,
0,0,0,17,0,0,0,17,12,12,12,66,0,0,12,12,12,0,0,17,0,0,0,66,12,12,12,17,0,0,
66,66,66,17,66,66,66,69,69,69,66,66,66,66,66,66,66,66,66,17,0,0,0,66,12,12,12,17,0,0,
12,12,12,17,0,0,0,17,0,0,0,66,0,0,12,12,12,0,0,17,0,0,0,66,12,12,12,17,0,0,
12,0,12,17,0,0,0,17,0,0,0,66,0,0,12,12,12,0,0,17,0,0,0,66,12,12,0,17,0,0,
12,12,12,17,12,12,12,17,0,0,0,66,0,0,12,12,12,0,0,17,0,0,0,66,0,0,0,17,0,0,
12,12,12,17,12,12,12,17,17,17,17,17,17,17,17,17,17,17,17,17,66,66,66,66,66,66,66,17,66,66,
12,12,12,17,12,12,12,17,0,0,12,12,12,12,12,12,12,0,0,17,0,0,0,66,0,0,0,17,0,0,
12,12,12,17,12,12,12,17,12,12,12,12,12,0,12,12,12,0,0,17,0,0,0,66,0,0,0,17,0,0,
12,12,12,17,12,12,12,17,12,12,12,12,12,12,12,12,12,12,12,17,0,0,0,66,0,0,0,17,0,0,
12,12,12,17,12,12,12,17,12,12,12,12,12,12,12,12,12,12,12,17,66,66,66,66,66,66,66,17,66,66,
12,12,12,17,12,12,12,17,12,12,12,12,12,12,12,12,12,12,12,17,0,0,0,66,0,0,0,17,0,0,
12,12,12,17,12,12,12,17,0,0,12,12,12,12,12,12,12,12,0,17,0,0,0,66,0,0,0,17,0,0,
12,12,12,17,12,12,12,17,0,0,12,12,12,12,12,12,12,0,0,17,0,0,0,66,0,0,0,17,0,0,
12,12,12,17,12,12,12,17,17,17,17,17,17,17,17,17,17,17,17,17,17,17,17,17,17,17,17,17,0,0,
12,12,12,17,12,12,12,17,0,12,12,12,12,12,12,12,12,0,0,17,0,0,0,66,0,0,0,17,0,0,
12,12,12,17,12,12,12,17,12,12,12,12,12,0,12,12,12,12,0,17,0,0,0,66,0,0,0,17,0,0,
12,12,12,17,12,12,12,17,12,12,12,12,12,12,12,12,12,12,12,17,0,0,0,66,0,0,0,17,0,0,
12,12,12,17,12,12,12,17,12,12,12,12,12,12,12,12,12,12,12,17,0,0,0,66,0,0,0,17,0,0,
12,12,12,17,12,12,12,17,12,12,12,12,12,12,12,12,12,12,12,17,0,0,0,66,0,0,0,17,0,0,
12,12,12,17,12,12,12,17,0,12,12,12,12,12,12,12,12,0,0,17,0,0,0,66,0,0,0,17,0,0
</data>
 </layer>
</map>
